icon/lg/multipass.svg

<?xml version="1.0" encoding="UTF-8"?>
<svg viewBox="0 0 256 256" version="1.1" xmlns="http://www.w3.org/2000/svg" xmlns:xlink="http://www.w3.org/1999/xlink" preserveAspectRatio="xMidYMid" height="1em" width="1em">
  <g>
    <path d="M128.001252,0 C198.693543,0 256.002504,57.3089616 256.002504,128.001247 C256.002504,198.693538 198.693543,256.002499 128.001252,256.002499 C57.3089616,256.002499 0,198.693538 0,128.001247 C0,57.3089616 57.3089616,0 128.001252,0" fill="#E95420"/>
    <path d="M205.153652,138.771723 C203.557015,138.827454 201.96595,138.994637 200.394392,139.273283 L178.85233,96.4399435 C187.225621,89.5908413 188.465591,77.2496469 181.619278,68.8763563 C174.772964,60.5002819 162.428981,59.260312 154.055695,66.1094091 C145.679616,72.9557225 144.439646,85.2969219 151.288748,93.6702075 L151.297105,93.6841415 C152.002078,94.6398929 152.849161,95.484187 153.802124,96.1891607 L132.260068,139.022505 C129.300853,138.270162 126.202317,138.270162 123.243107,139.022505 L101.951824,96.4399435 C110.327898,89.5908413 111.565084,77.2496469 104.718771,68.8763563 C97.8696738,60.5002819 85.5284794,59.260312 77.1524,66.1094091 C68.7791144,72.9557225 67.5391445,85.2969219 74.3854528,93.6702075 C74.3910254,93.6757801 74.3938142,93.6785689 74.396603,93.6841415 C75.2520424,94.6621834 76.1715693,95.5844991 77.1524,96.4399435 L55.359561,139.273283 C53.7350604,138.777295 52.0492561,138.526517 50.3495176,138.52094 C39.4907146,138.451279 30.6297974,147.200739 30.5621006,158.059542 C30.4932608,168.918345 39.2399368,177.779268 50.0987399,177.846964 C60.9603267,177.915804 69.8184601,169.169128 69.8881203,158.310325 C69.9020544,152.506146 67.3301588,146.997331 62.8746234,143.2802 L84.6674625,100.196078 C86.2362368,100.499803 87.8300855,100.666991 89.426723,100.697643 C90.942555,100.653057 92.4500256,100.485869 93.9352007,100.196078 L115.229268,142.77864 C106.853194,149.627742 105.610435,161.966152 112.459537,170.342227 C119.30585,178.718301 131.647045,179.958271 140.023119,173.109174 C148.399193,166.262861 149.63638,153.921661 142.790066,145.545587 C142.787282,145.542803 142.784494,145.540014 142.778921,145.534442 C141.990358,144.495096 141.065254,143.569991 140.025908,142.77864 L161.593048,99.9453 C163.142316,100.360483 164.750099,100.527666 166.352309,100.446861 C167.865352,100.40228 169.372823,100.235091 170.860787,99.9453 L192.402848,142.530646 C184.102006,149.446619 182.981855,161.782246 189.897829,170.083083 C196.816586,178.38114 209.152213,179.50408 217.450266,172.585318 C225.751107,165.669344 226.874047,153.333723 219.955285,145.035665 C216.073759,141.028748 210.732127,138.768934 205.153652,138.771723" fill="#FFFFFF"/>
  </g>
</svg>

<svg width="256" height="256" xmlns="http://www.w3.org/2000/svg" preserveAspectRatio="xMidYMid"><path d="M128.001 0c70.693 0 128.002 57.309 128.002 128.001 0 70.693-57.31 128.001-128.002 128.001C57.31 256.002 0 198.694 0 128.002 0 57.308 57.309 0 128.001 0" fill="#E95420"/><path d="M205.154 138.772a34.075 34.075 0 0 0-4.76.501L178.852 96.44c8.374-6.85 9.614-19.19 2.767-27.564-6.846-8.376-19.19-9.616-27.563-2.767-8.376 6.847-9.616 19.188-2.767 27.561l.008.014c.705.956 1.552 1.8 2.505 2.505l-21.542 42.834a18.294 18.294 0 0 0-9.017 0L101.952 96.44c8.376-6.85 9.613-19.19 2.767-27.564-6.85-8.376-19.19-9.616-27.567-2.767-8.373 6.847-9.613 19.188-2.767 27.561a28.906 28.906 0 0 0 2.767 2.77L55.36 139.273a17.337 17.337 0 0 0-5.01-.752c-10.86-.07-19.72 8.68-19.788 19.539-.069 10.858 8.678 19.72 19.537 19.787 10.861.069 19.72-8.678 19.79-19.537a19.515 19.515 0 0 0-7.014-15.03l21.792-43.084c1.57.304 3.163.471 4.76.502a27.807 27.807 0 0 0 4.508-.502l21.294 42.583c-8.376 6.849-9.619 19.187-2.77 27.563 6.847 8.376 19.188 9.616 27.564 2.767 8.376-6.846 9.613-19.187 2.767-27.563l-.011-.012a14.407 14.407 0 0 0-2.753-2.755l21.567-42.834c1.55.415 3.157.583 4.76.502a27.875 27.875 0 0 0 4.508-.502l21.542 42.586c-8.301 6.916-9.421 19.251-2.505 27.552 6.919 8.298 19.254 9.421 27.552 2.502 8.301-6.916 9.424-19.251 2.505-27.55a20.593 20.593 0 0 0-14.801-6.263" fill="#FFF"/></svg>
